X:1
T:The South Down Militia
M:2/4
L:1/8
K:D
 AF| D3/2 D/2 DF| A2 A2| B2 dB| A2 FG| A3/2 A/2 AB| BF ED| E/2 D3/2 EF|\
 E2 AA| DD DF| A/2A/2 A z2| B/2B/2 B B3/2 c/2| d2 AA| d2 d3/2 d/2|\
 BA FD| E/2 E3/2 DC| D2||

